packages/tokens/icons/card2/size32Px.svg

<svg viewBox="0 0 32 32" fill="none" xmlns="http://www.w3.org/2000/svg" width="1em" height="1em"><path d="M27.5 16.5V16.5C28.6046 16.5 29.5 15.6046 29.5 14.5L29.5 4.5C29.5 3.39543 28.6046 2.5 27.5 2.5L9.5 2.5C8.39543 2.5 7.5 3.39543 7.5 4.5L7.5 13" stroke="currentColor" stroke-linecap="round"/><path d="M7.82141 5.5L29 5.5M7.5 8.5L29.5 8.5" stroke="currentColor" stroke-linecap="round"/><path d="M2.5 17C2.5 16.1716 3.17157 15.5 4 15.5L23 15.5C23.8284 15.5 24.5 16.1716 24.5 17L24.5 28C24.5 28.8284 23.8284 29.5 23 29.5L4 29.5C3.17157 29.5 2.5 28.8284 2.5 28L2.5 17Z" stroke="currentColor"/><path d="M4.5 23.5H9.5M17.5 23.5H22.5M12 23.5H15" stroke="currentColor" stroke-linecap="round" stroke-dasharray="1 1.5"/><rect x="4.5" y="17.5" width="3" height="3" rx="0.5" stroke="currentColor"/><path d="M4.5 26.5H11.7143" stroke="currentColor" stroke-linecap="round"/><circle cx="21.5" cy="26.5" r="1" stroke="currentColor"/></svg>

<svg xmlns="http://www.w3.org/2000/svg" fill="none" viewBox="0 0 32 32" width="1em" height="1em"><path stroke="currentColor" stroke-linecap="round" d="M27.5 16.5v0a2 2 0 0 0 2-2v-10a2 2 0 0 0-2-2h-18a2 2 0 0 0-2 2V13m.321-7.5H29m-21.5 3h22"/><path stroke="currentColor" d="M2.5 17A1.5 1.5 0 0 1 4 15.5h19a1.5 1.5 0 0 1 1.5 1.5v11a1.5 1.5 0 0 1-1.5 1.5H4A1.5 1.5 0 0 1 2.5 28V17Z"/><path stroke="currentColor" stroke-dasharray="1 1.5" stroke-linecap="round" d="M4.5 23.5h5m8 0h5m-10.5 0h3"/><rect width="3" height="3" x="4.5" y="17.5" stroke="currentColor" rx=".5"/><path stroke="currentColor" stroke-linecap="round" d="M4.5 26.5h7.214"/><circle cx="21.5" cy="26.5" r="1" stroke="currentColor"/></svg>
